icons/op-cost-reports-24.svg

<svg width="24" height="24" viewBox="0 0 24 24" fill="none" xmlns="http://www.w3.org/2000/svg">
<path d="M17.8708 7.14898V16.851H6.12916V7.14898H17.8708ZM20 5H4V19H20V5ZM8.25832 15.7765H7.19374V12.553H8.25832V15.7765ZM10.3875 15.7765H9.3229V11.447H10.3875V15.7765ZM12.5479 15.7765H11.4834V12.553H12.5479V15.7765ZM14.6771 15.7765H13.6125V9.29797H14.6771V15.7765ZM16.8063 15.7765H15.7417V12.553H16.8063V15.7765Z" fill="black"/>
</svg>

<svg xmlns="http://www.w3.org/2000/svg" width="24" height="24" viewBox="0 0 24 24"><path d="M17.871 7.149v9.702H6.129V7.149h11.742ZM20 5H4v14h16V5ZM8.258 15.777H7.194v-3.224h1.064v3.224Zm2.129 0H9.323v-4.33h1.064v4.33Zm2.161 0h-1.065v-3.224h1.065v3.224Zm2.129 0h-1.064V9.298h1.064v6.479Zm2.129 0h-1.064v-3.224h1.064v3.224Z"/></svg>
